X: 307
T: Beyâtî Aranağme (Ağıraksak)
C: ?
O: Turkey
F: http://compmusic.upf.edu/node/140
N: beyati--aranagme--agiraksak--1--
N: makam= beyati
N: form= aranagme
N: usul= agiraksak = 9/4
M: 9/4
L: 1/16
K: C _2/4B   
Q: 1/4=69
%%MIDI tuningsystem comma53
G2A4f2 e2fe d4 d2ed c2B2 cdc2 d2ed d4  | \
w:  ARANAĞME  | 
dedf e2d2 c2B2 A2G2 ABcd efge f4 gfef g4  | 
w:   | 
gfef gag_b a2g2 f2e2 fefg agfe dcBd c2B2 A2G2  | 
w:   | 
egf4fe _1/4e3d (3g^f_7/8edc c3B cBBA A3=f =edcB A4  | 
w:   | 
G2A4f2 e2fe d4 d2ed c2B2 cdc2 d2ed d4  | \
w:  ARANAĞME  | 
dedf e2d2 c2B2 A2G2 ABcd efge f4 gfef g4  | 
w:   | 
gfef gag_b a2g2 f2e2 fefg agfe dcBd c2B2 A2G2  | 
w:   | 
egf4fe _1/4e3d (3g^f_7/8edc c3B cBBA A8 z4  | |


